X:1
T:Title
%%score { 1 | 2 }
L:1/8
Q:1/4=100
M:4/4
K:G
V:1 treble nm="Grand Piano"
V:2 bass 
V:1
 [DGB]2 [CFA]2 [B,G]2 [Dd]2 | [Ec]2 [DGB]2 [DFA]4 | [B,G]2 [DFA]2 [DGB]2 [EGc]2 | %3
w: Asa~Hull * * *|||
[M:5/4] [DGB]2 [CFA]2 [B,G]6 |[M:4/4] [DGB]2 [CFA]2 [B,G]2 [DFA]2 | [DGB]2 [G^c]2 [Fd]4 | %6
w: |||
 B2 [Dd]2 [Ec]2 [DB]2 |[M:5/4] [EA]2 [CDA]2 [B,DG]6 |] %8
w: ||
V:2
 G,2 D,2 E,2 [B,,G,]2 | [C,G,]2 G,,2 D,4 | E,2 D,2 G,2 C,2 |[M:5/4] D,2 D,2 G,,6 | %4
[M:4/4] [G,,G,]2 D,2 E,2 D,2 | G,2 [E,A,]2 [D,A,]4 | [G,D]2 [B,,G,]2 [C,G,]2 [G,,G,]2 | %7
[M:5/4] [C,G,]2 D,2 G,,6 |] %8

